public/img/socials-dark-yt.svg

<svg width="32" height="32" viewBox="0 0 32 32" fill="none" xmlns="http://www.w3.org/2000/svg">
<path d="M29.4156 9.25313C29.2562 8.65949 28.9437 8.11814 28.5094 7.68324C28.075 7.24834 27.5341 6.93514 26.9406 6.775C24.7562 6.1875 16 6.1875 16 6.1875C16 6.1875 7.24375 6.1875 5.05937 6.77187C4.46569 6.9315 3.92445 7.24452 3.49002 7.6795C3.05558 8.11448 2.74325 8.65611 2.58437 9.25C2 11.4375 2 16 2 16C2 16 2 20.5625 2.58437 22.7469C2.90625 23.9531 3.85625 24.9031 5.05937 25.225C7.24375 25.8125 16 25.8125 16 25.8125C16 25.8125 24.7562 25.8125 26.9406 25.225C28.1469 24.9031 29.0938 23.9531 29.4156 22.7469C30 20.5625 30 16 30 16C30 16 30 11.4375 29.4156 9.25313ZM13.2188 20.1875V11.8125L20.4688 15.9688L13.2188 20.1875Z" fill="black"/>
</svg>

<svg width="32" height="32" fill="none" xmlns="http://www.w3.org/2000/svg"><path d="M29.416 9.253a3.51 3.51 0 00-2.475-2.478C24.756 6.187 16 6.187 16 6.187s-8.756 0-10.94.585A3.504 3.504 0 002.583 9.25C2 11.438 2 16 2 16s0 4.563.584 6.747a3.51 3.51 0 002.475 2.478c2.185.587 10.941.587 10.941.587s8.756 0 10.94-.587a3.504 3.504 0 002.476-2.478C30 20.563 30 16 30 16s0-4.563-.584-6.747zM13.219 20.187v-8.375l7.25 4.157-7.25 4.219z" fill="#000"/></svg>
